storage/app/icons/phosphoricons/fill/briefcase-metal-fill.svg

<svg xmlns="http://www.w3.org/2000/svg" fill="currentColor" viewBox="0 0 256 256"><path d="M28 112h200a4 4 0 0 1 4 4v40a4 4 0 0 1-4 4H28a4 4 0 0 1-4-4v-40a4 4 0 0 1 4-4m-4 88a16 16 0 0 0 16 16h176a16 16 0 0 0 16-16v-20a4 4 0 0 0-4-4H28a4 4 0 0 0-4 4ZM232 72v20a4 4 0 0 1-4 4H28a4 4 0 0 1-4-4V72a16 16 0 0 1 16-16h40v-8a24 24 0 0 1 24-24h48a24 24 0 0 1 24 24v8h40a16 16 0 0 1 16 16m-72-24a8 8 0 0 0-8-8h-48a8 8 0 0 0-8 8v8h64Z"/></svg>

<svg xmlns="http://www.w3.org/2000/svg" viewBox="0 0 256 256" fill="currentColor"><path d="M28,112H228a4,4,0,0,1,4,4v40a4,4,0,0,1-4,4H28a4,4,0,0,1-4-4V116A4,4,0,0,1,28,112Zm-4,88a16,16,0,0,0,16,16H216a16,16,0,0,0,16-16V180a4,4,0,0,0-4-4H28a4,4,0,0,0-4,4ZM232,72V92a4,4,0,0,1-4,4H28a4,4,0,0,1-4-4V72A16,16,0,0,1,40,56H80V48a24,24,0,0,1,24-24h48a24,24,0,0,1,24,24v8h40A16,16,0,0,1,232,72ZM160,48a8,8,0,0,0-8-8H104a8,8,0,0,0-8,8v8h64Z"/></svg>
